images/usecases/scada/chemical-2.svg

<svg width="285" height="210" viewBox="0 0 285 210" fill="none" xmlns="http://www.w3.org/2000/svg">
<path d="M107.75 114.773C107.75 69.348 144.575 32.5234 190 32.5234C235.425 32.5234 272.25 69.348 272.25 114.773C272.25 160.199 235.425 197.023 190 197.023C144.575 197.023 107.75 160.199 107.75 114.773Z" stroke="#3E9AF8" stroke-width="1.5"/>
<path d="M205.635 143.784C205.635 144.982 204.664 145.953 203.466 145.953C202.268 145.953 201.297 144.982 201.297 143.784C201.297 142.586 202.268 141.615 203.466 141.615C204.664 141.615 205.635 142.586 205.635 143.784Z" fill="#3E9AF8"/>
<path d="M223.35 145.954C223.35 147.152 222.379 148.123 221.181 148.123C219.983 148.123 219.012 147.152 219.012 145.954C219.012 144.756 219.983 143.785 221.181 143.785C222.379 143.785 223.35 144.756 223.35 145.954Z" fill="#3E9AF8"/>
<path d="M215.213 138.542C215.213 139.74 214.242 140.711 213.044 140.711C211.846 140.711 210.875 139.74 210.875 138.542C210.875 137.344 211.846 136.373 213.044 136.373C214.242 136.373 215.213 137.344 215.213 138.542Z" fill="#3E9AF8"/>
<path d="M226.24 134.386C226.24 135.584 225.269 136.555 224.071 136.555C222.873 136.555 221.902 135.584 221.902 134.386C221.902 133.188 222.873 132.217 224.071 132.217C225.269 132.217 226.24 133.188 226.24 134.386Z" fill="#3E9AF8"/>
<path d="M205.635 132.216C205.635 133.414 204.664 134.385 203.466 134.385C202.268 134.385 201.297 133.414 201.297 132.216C201.297 131.018 202.268 130.047 203.466 130.047C204.664 130.047 205.635 131.018 205.635 132.216Z" fill="#3E9AF8"/>
<path fill-rule="evenodd" clip-rule="evenodd" d="M175.533 75.6342C174.164 76.1985 172.601 76.0253 171.389 75.1749C170.671 74.6717 169.802 74.377 168.852 74.377C166.583 74.377 164.708 76.0865 164.453 78.2851C164.249 80.0515 162.987 81.5142 161.269 81.9756C158.918 82.6071 157.193 84.7578 157.193 87.3004C157.193 90.345 159.662 92.8131 162.706 92.8131C164.886 92.8131 166.778 91.5485 167.675 89.6936C168.232 88.5417 169.268 87.6942 170.508 87.3779C171.748 87.0615 173.064 87.3085 174.104 88.0528C175.272 88.8882 176.698 89.3789 178.25 89.3789C180.663 89.3789 182.797 88.1868 184.096 86.34C185.442 84.4265 188.063 83.9254 190.021 85.2073C190.558 85.5592 191.197 85.764 191.897 85.764C193.793 85.764 195.331 84.2265 195.331 82.3298C195.331 80.4332 193.793 78.8956 191.897 78.8956C191.213 78.8956 190.588 79.0911 190.059 79.4276C188.085 80.6834 185.471 80.1477 184.15 78.2166C182.857 76.3259 180.696 75.1 178.25 75.1C177.28 75.1 176.365 75.2913 175.533 75.6342ZM187.73 75.7676C185.663 72.7454 182.188 70.762 178.25 70.762C176.703 70.762 175.227 71.0683 173.88 71.6236C172.456 70.6251 170.722 70.0391 168.852 70.0391C164.355 70.0391 160.649 73.4249 160.144 77.7862C155.946 78.914 152.855 82.7463 152.855 87.3004C152.855 92.7407 157.266 97.151 162.706 97.151C165.406 97.151 167.853 96.0646 169.632 94.3049C170.427 93.519 171.089 92.5987 171.581 91.5811C172.631 92.3324 173.813 92.9109 175.086 93.2752C176.091 93.5628 177.153 93.7169 178.25 93.7169C182.134 93.7169 185.567 91.788 187.644 88.8361C188.866 89.6365 190.327 90.1019 191.897 90.1019C196.189 90.1019 199.669 86.6222 199.669 82.3298C199.669 78.0374 196.189 74.5577 191.897 74.5577C190.364 74.5577 188.935 75.0015 187.73 75.7676Z" fill="#3E9AF8"/>
<path fill-rule="evenodd" clip-rule="evenodd" d="M207.826 70.156C208.959 69.7689 210.192 70.3741 210.579 71.5077C212.063 75.8533 211.234 79.1424 210.548 81.6026C209.828 84.1851 209.615 85.0901 210.343 86.2065C210.998 87.2098 210.715 88.5537 209.711 89.2081C208.708 89.8624 207.364 89.5795 206.71 88.5762C204.857 85.7359 205.654 82.9477 206.248 80.8672C206.29 80.7203 206.331 80.577 206.369 80.4374C206.994 78.1982 207.521 75.9745 206.474 72.9095C206.087 71.7759 206.692 70.5431 207.826 70.156ZM151.23 101.309C151.23 100.111 152.201 99.1398 153.399 99.1398H165.147C166.345 99.1398 167.316 100.111 167.316 101.309V130.499H173.01V117.576C173.01 116.744 173.486 115.985 174.235 115.623L196.105 105.05C196.777 104.725 197.569 104.768 198.202 105.165C198.834 105.562 199.218 106.256 199.218 107.002V120.92C199.218 122.118 198.247 123.089 197.049 123.089C195.851 123.089 194.88 122.118 194.88 120.92V110.46L177.732 118.751H188.735C189.933 118.751 190.904 119.722 190.904 120.92C190.904 122.118 189.933 123.089 188.735 123.089H177.348V124.625H188.735C189.933 124.625 190.904 125.596 190.904 126.794C190.904 127.992 189.933 128.963 188.735 128.963H177.348V130.499H190.723C191.921 130.499 192.892 131.47 192.892 132.668C192.892 133.866 191.921 134.837 190.723 134.837H148.338V138.091H171.745C172.942 138.091 173.914 139.062 173.914 140.26C173.914 141.458 172.942 142.429 171.745 142.429H148.338V154.991H209.521C210.719 154.991 211.69 155.962 211.69 157.159C211.69 158.357 210.719 159.328 209.521 159.328H146.169C144.971 159.328 144 158.357 144 157.159V132.668C144 131.47 144.971 130.499 146.169 130.499H151.23V101.309ZM155.568 130.499H162.978V103.478H155.568V130.499Z" fill="#3E9AF8"/>
<path fill-rule="evenodd" clip-rule="evenodd" d="M216.038 70.156C217.172 69.7689 218.405 70.3741 218.792 71.5077C220.276 75.8538 219.447 79.0976 218.758 81.5228C218.039 84.0498 217.83 84.9123 218.556 86.0259C219.21 87.0292 218.927 88.3731 217.924 89.0275C216.92 89.6818 215.577 89.3989 214.922 88.3955C213.068 85.5518 213.867 82.8043 214.463 80.7574C214.505 80.6136 214.546 80.4733 214.585 80.3366C215.206 78.1527 215.733 75.974 214.686 72.9095C214.299 71.7759 214.905 70.5431 216.038 70.156Z" fill="#3E9AF8"/>
<path fill-rule="evenodd" clip-rule="evenodd" d="M192.748 128.055C192.345 126.927 192.933 125.686 194.061 125.283C196.861 124.282 200.157 124.131 203.465 124.301C206.594 124.462 209.945 124.926 213.162 125.371C213.366 125.4 213.569 125.428 213.772 125.456C217.226 125.933 220.499 126.365 223.411 126.434C226.357 126.503 228.641 126.187 230.239 125.386C231.31 124.849 232.613 125.282 233.15 126.353C233.687 127.424 233.254 128.727 232.183 129.264C229.624 130.547 226.475 130.845 223.309 130.771C220.109 130.695 216.593 130.225 213.178 129.753C212.994 129.728 212.809 129.702 212.625 129.676C209.353 129.224 206.177 128.784 203.242 128.633C200.122 128.473 197.51 128.657 195.521 129.368C194.392 129.771 193.151 129.183 192.748 128.055Z" fill="#3E9AF8"/>
<path fill-rule="evenodd" clip-rule="evenodd" d="M212.863 155.171C223.245 155.171 231.661 146.755 231.661 136.374C231.661 126.184 222.627 117.576 212.05 117.576C201.668 117.576 193.252 125.992 193.252 136.374C193.252 146.564 202.285 155.171 212.863 155.171ZM212.863 159.509C225.64 159.509 235.999 149.151 235.999 136.374C235.999 123.596 224.827 113.238 212.05 113.238C199.272 113.238 188.914 123.596 188.914 136.374C188.914 149.151 200.086 159.509 212.863 159.509Z" fill="#3E9AF8"/>
<path fill-rule="evenodd" clip-rule="evenodd" d="M199.039 94.8916C199.039 93.6937 200.01 92.7227 201.208 92.7227H224.344C225.541 92.7227 226.513 93.6937 226.513 94.8916C226.513 96.0895 225.541 97.0606 224.344 97.0606H221.813V116.4C221.813 117.598 220.842 118.569 219.644 118.569C218.446 118.569 217.475 117.598 217.475 116.4V97.0606H207.353V116.4C207.353 117.598 206.382 118.569 205.184 118.569C203.987 118.569 203.015 117.598 203.015 116.4V97.0606H201.208C200.01 97.0606 199.039 96.0895 199.039 94.8916Z" fill="#3E9AF8"/>
<path d="M187.551 0.773438V16.7734" stroke="#3E9AF8" stroke-width="1.5"/>
<line y1="-0.75" x2="70.773" y2="-0.75" transform="matrix(1 -4.37905e-08 -4.36321e-08 -1 21.2305 111.484)" stroke="#3E9AF8" stroke-width="1.5"/>
<path d="M188.232 15.7671C175.49 15.7351 162.866 18.2219 151.085 23.0849C139.304 27.948 128.596 35.0918 119.575 44.1072C110.554 53.1226 103.397 63.8324 98.5137 75.6232C93.6306 87.4139 91.1175 100.054 91.1183 112.819L92.4658 112.819C92.465 100.231 94.9431 87.7672 99.7582 76.1404C104.573 64.5137 111.631 53.9529 120.526 45.0629C129.422 36.1729 139.981 29.1284 151.598 24.333C163.216 19.5376 175.663 17.0854 188.228 17.117L188.232 15.7671Z" fill="#3E9AF8"/>
<path d="M10.6159 122.255C16.0635 122.255 20.4819 117.83 20.4819 112.37C20.4819 106.909 16.0635 102.484 10.6159 102.484C5.16842 102.484 0.75 106.909 0.75 112.37C0.75 117.83 5.16842 122.255 10.6159 122.255Z" fill="#F4F8FE" stroke="#3E9AF8" stroke-width="1.5"/>
</svg>

<svg width="285" height="210" fill="none" xmlns="http://www.w3.org/2000/svg"><path d="M107.75 114.773c0-45.425 36.825-82.25 82.25-82.25s82.25 36.825 82.25 82.25c0 45.426-36.825 82.25-82.25 82.25s-82.25-36.824-82.25-82.25Z" stroke="#3E9AF8" stroke-width="1.5"/><path d="M205.635 143.784a2.169 2.169 0 1 1-4.338 0 2.169 2.169 0 0 1 4.338 0ZM223.35 145.954a2.169 2.169 0 1 1-4.338 0 2.169 2.169 0 0 1 4.338 0ZM215.213 138.542a2.169 2.169 0 1 1-4.338 0 2.169 2.169 0 0 1 4.338 0ZM226.24 134.386a2.169 2.169 0 1 1-4.338 0 2.169 2.169 0 0 1 4.338 0ZM205.635 132.216a2.169 2.169 0 1 1-4.338 0 2.169 2.169 0 0 1 4.338 0Z" fill="#3E9AF8"/><path fill-rule="evenodd" clip-rule="evenodd" d="M175.533 75.634a4.338 4.338 0 0 1-4.144-.46 4.43 4.43 0 0 0-6.936 3.11 4.337 4.337 0 0 1-3.184 3.692 5.513 5.513 0 1 0 6.406 7.718 4.338 4.338 0 0 1 6.429-1.641 7.089 7.089 0 0 0 4.146 1.326 7.125 7.125 0 0 0 5.846-3.039 4.338 4.338 0 0 1 5.925-1.133 3.434 3.434 0 1 0 .038-5.78 4.338 4.338 0 0 1-5.909-1.21 7.127 7.127 0 0 0-5.9-3.117c-.97 0-1.885.191-2.717.534Zm12.197.134a11.465 11.465 0 0 0-9.48-5.006 11.44 11.44 0 0 0-4.37.862 8.768 8.768 0 0 0-13.736 6.163c-4.198 1.127-7.289 4.96-7.289 9.513 0 5.44 4.411 9.851 9.851 9.851 2.7 0 5.147-1.086 6.926-2.846a9.88 9.88 0 0 0 1.949-2.724 11.423 11.423 0 0 0 6.669 2.136c3.884 0 7.317-1.929 9.394-4.88a7.772 7.772 0 1 0 .086-13.069ZM207.826 70.156a2.169 2.169 0 0 1 2.753 1.352c1.484 4.345.655 7.634-.031 10.095-.72 2.582-.933 3.487-.205 4.604a2.168 2.168 0 1 1-3.633 2.37c-1.853-2.841-1.056-5.63-.462-7.71.042-.147.083-.29.121-.43.625-2.239 1.152-4.462.105-7.528a2.169 2.169 0 0 1 1.352-2.753Zm-56.596 31.153c0-1.198.971-2.17 2.169-2.17h11.748c1.198 0 2.169.972 2.169 2.17v29.19h5.694v-12.923a2.17 2.17 0 0 1 1.225-1.953l21.87-10.573a2.169 2.169 0 0 1 3.113 1.952v13.918a2.169 2.169 0 1 1-4.338 0v-10.46l-17.148 8.291h11.003a2.169 2.169 0 1 1 0 4.338h-11.387v1.536h11.387a2.169 2.169 0 1 1 0 4.338h-11.387v1.536h13.375a2.169 2.169 0 1 1 0 4.338h-42.385v3.254h23.407a2.17 2.17 0 0 1 0 4.338h-23.407v12.562h61.183a2.169 2.169 0 1 1 0 4.337h-63.352a2.169 2.169 0 0 1-2.169-2.169v-24.491c0-1.198.971-2.169 2.169-2.169h5.061v-29.19Zm4.338 29.19h7.41v-27.021h-7.41v27.021ZM216.038 70.156a2.17 2.17 0 0 1 2.754 1.352c1.484 4.346.655 7.59-.034 10.015-.719 2.527-.928 3.39-.202 4.503a2.17 2.17 0 0 1-3.634 2.37c-1.854-2.844-1.055-5.592-.459-7.639l.122-.42c.621-2.184 1.148-4.363.101-7.428a2.17 2.17 0 0 1 1.352-2.753Z" fill="#3E9AF8"/><path fill-rule="evenodd" clip-rule="evenodd" d="M192.748 128.055a2.169 2.169 0 0 1 1.313-2.772c2.8-1.001 6.096-1.152 9.404-.982 3.129.161 6.48.625 9.697 1.07l.61.085c3.454.477 6.727.909 9.639.978 2.946.069 5.23-.247 6.828-1.048a2.169 2.169 0 1 1 1.944 3.878c-2.559 1.283-5.708 1.581-8.874 1.507-3.2-.076-6.716-.546-10.131-1.018l-.553-.077c-3.272-.452-6.448-.892-9.383-1.043-3.12-.16-5.732.024-7.721.735a2.17 2.17 0 0 1-2.773-1.313Z" fill="#3E9AF8"/><path fill-rule="evenodd" clip-rule="evenodd" d="M212.863 155.171c10.382 0 18.798-8.416 18.798-18.797 0-10.19-9.034-18.798-19.611-18.798-10.382 0-18.798 8.416-18.798 18.798 0 10.19 9.033 18.797 19.611 18.797Zm0 4.338c12.777 0 23.136-10.358 23.136-23.135 0-12.778-11.172-23.136-23.949-23.136-12.778 0-23.136 10.358-23.136 23.136 0 12.777 11.172 23.135 23.949 23.135Z" fill="#3E9AF8"/><path fill-rule="evenodd" clip-rule="evenodd" d="M199.039 94.892c0-1.198.971-2.17 2.169-2.17h23.136a2.17 2.17 0 0 1 0 4.339h-2.531V116.4a2.169 2.169 0 1 1-4.338 0V97.06h-10.122v19.34a2.169 2.169 0 1 1-4.338 0V97.06h-1.807a2.169 2.169 0 0 1-2.169-2.168Z" fill="#3E9AF8"/><path d="M187.551.773v16" stroke="#3E9AF8" stroke-width="1.5"/><path transform="matrix(1 0 0 -1 21.23 111.484)" stroke="#3E9AF8" stroke-width="1.5" d="M0-.75h70.773"/><path d="M188.232 15.767a96.72 96.72 0 0 0-37.147 7.318 96.86 96.86 0 0 0-31.51 21.022 97.064 97.064 0 0 0-21.061 31.516 97.198 97.198 0 0 0-7.396 37.196h1.348a95.846 95.846 0 0 1 7.292-36.679 95.712 95.712 0 0 1 20.768-31.077 95.52 95.52 0 0 1 31.072-20.73 95.374 95.374 0 0 1 36.63-7.216l.004-1.35Z" fill="#3E9AF8"/><path d="M10.616 122.255c5.448 0 9.866-4.425 9.866-9.885 0-5.461-4.418-9.886-9.866-9.886-5.448 0-9.866 4.425-9.866 9.886 0 5.46 4.418 9.885 9.866 9.885Z" fill="#F4F8FE" stroke="#3E9AF8" stroke-width="1.5"/></svg>
